modules/linea-weather/icons/weather-last-quarter.svg

<svg xmlns="http://www.w3.org/2000/svg" width="64" height="64" viewBox="0 0 64 64"><circle fill="none" stroke="#000" stroke-width="2" stroke-miterlimit="10" cx="32" cy="32" r="31"/><path fill="none" stroke="#000" stroke-width="2" stroke-miterlimit="10" d="M32 59h15m-15-6h23m-23-6h27m-27-6h30m-30-6h31M32 1v62m0-34h31m-31-6h30m-30-6h27m-27-6h23M32 5h15"/></svg>

<svg xmlns="http://www.w3.org/2000/svg" width="64" height="64" viewBox="0 0 64 64"><circle fill="none" stroke="#000" stroke-width="2" stroke-miterlimit="10" cx="32" cy="32" r="31"/><path fill="none" stroke="#000" stroke-width="2" stroke-miterlimit="10" d="M32 59h15M32 53h23M32 47h27M32 41h30M32 35h31M32 1v62M32 29h31M32 23h30M32 17h27M32 11h23M32 5h15"/></svg>
